X: 382
T:Highland Mary
T:Mild and Hairy
O:Cotswold morris tune from Oddington, England
M:4/4
K:G
|:D2|\
"G"G2AG "D"F2D2|"G"G2AB "C"c2Bc|"G"d2Bd "C"c2BA|"Em"G2FE "D7"D2(3DEF|\
"G"G2AG "D"FED2|"G"G2AB "C"c2Bc|"G"d2Bd "Am"c2BA|"G"G2"D"F2 "G"G2:|
|:B2|\
"G"d2d2 d2(3edB|"C"c2c2 c2Bc|"G"d2d2 dcBA|"Em"G2F2 "D7"D2D2|\
"G"G2AG "D"F2D2|"G"G2AB "C"c2BC|"G"d2Bd "Am"c2BA|"G"G2"D"F2 "G"G2:|
